symbols/web/5k/materialsymbolsoutlined/5k_grad200fill1_24px.svg

<svg xmlns="http://www.w3.org/2000/svg" height="24" width="24"><path d="M13 15.05h1.5v-2.3l1.8 2.3h1.8L15.75 12l2.35-3.05h-1.8l-1.8 2.3v-2.3H13Zm-6.5 0h3.55q.425 0 .713-.288.287-.287.287-.712V12.5q0-.425-.287-.713-.288-.287-.713-.287H8v-1.05h3.05v-1.5H6.5v3.55h3.05v1.05H6.5ZM5 21.65q-1.1 0-1.875-.775Q2.35 20.1 2.35 19V5q0-1.1.775-1.875Q3.9 2.35 5 2.35h14q1.1 0 1.875.775.775.775.775 1.875v14q0 1.1-.775 1.875-.775.775-1.875.775Z"/></svg>

<svg xmlns="http://www.w3.org/2000/svg" height="24" width="24"><path d="M13 15.05H14.5V12.75L16.3 15.05H18.1L15.75 12L18.1 8.95H16.3L14.5 11.25V8.95H13ZM6.5 15.05H10.05Q10.475 15.05 10.763 14.762Q11.05 14.475 11.05 14.05V12.5Q11.05 12.075 10.763 11.787Q10.475 11.5 10.05 11.5H8V10.45H11.05V8.95H6.5V12.5H9.55V13.55H6.5ZM5 21.65Q3.9 21.65 3.125 20.875Q2.35 20.1 2.35 19V5Q2.35 3.9 3.125 3.125Q3.9 2.35 5 2.35H19Q20.1 2.35 20.875 3.125Q21.65 3.9 21.65 5V19Q21.65 20.1 20.875 20.875Q20.1 21.65 19 21.65Z"/></svg>
